synths/s1INCH.svg

<svg width="480" height="480" viewBox="0 0 480 480" fill="none" xmlns="http://www.w3.org/2000/svg"><mask id="mask0" maskUnits="userSpaceOnUse" x="0" y="0" width="480" height="480"><circle cx="240" cy="240" r="240" fill="url(#paint0_linear)"/></mask><g mask="url(#mask0)"><circle cx="240" cy="240" r="240" fill="#31D8A4"/><circle cx="240" cy="240" r="208" fill="#fff"/></g><circle cx="240" cy="240" r="184" fill="#0E052F"/><path d="M239.761 389.991c79.397 0 143.76-64.365 143.76-143.761 0-79.397-64.363-143.761-143.76-143.761C160.364 102.469 96 166.833 96 246.23c0 79.396 64.364 143.761 143.761 143.761z" fill="#ECF3FF"/><path d="M200.945 158.545l-50.316-20.127v7.188l43.128 38.816-2.875 40.253-12.939 54.629-17.251 24.439 4.313 34.503 21.564 2.875 17.251-2.875 17.251 2.875 30.19-18.689 5.751-30.189 35.94-34.503 15.814 11.5 15.813 23.003v46.003l21.565-5.751 21.564-47.441 5.75-60.379-77.63-113.571-12.939-2.875-81.944 50.316z" fill="#fff"/><path d="M124.752 241.629c.575-4.887.863-9.775 2.301-14.375 4.025-18.977 11.788-37.091 23.289-51.754 2.013-2.588 3.738-4.888 6.038-7.189l-12.939-12.076c-2.3 3.451-4.6 6.901-6.613 10.352-10.638 18.401-16.388 39.102-17.826 59.516-.575 5.176-.288 10.351-.288 15.239 0 5.175.575 10.063 1.438 15.239 1.438 10.063 4.025 19.838 7.476 29.039-2.301-9.776-3.451-19.551-3.738-29.614 0-4.601 0-9.489.862-14.377zm58.943-93.147c-7.188-3.451-17.251-8.051-24.439-11.501 6.613-6.326 18.688-12.939 28.752-17.252-7.188 5.751-7.188 17.827-4.313 28.753zm-29.041 48.868c-4.025 10.064-6.612 20.702-7.475 31.053-.288 2.587-.575 5.176-.288 7.763 0 2.588 0 5.175.288 7.763l.288 4.025c0 1.15.287 2.588.575 3.738l1.15 7.763.287-7.763c0-1.15 0-2.588.288-3.738l.575-3.738c.287-2.587.862-5.175 1.15-7.475.287-2.588 1.15-4.888 1.725-7.188 2.588-9.776 6.9-18.689 12.076-27.027 3.45-5.463 7.475-10.351 11.788-14.951l-11.213-10.638c-4.888 6.612-8.338 13.226-11.214 20.413zm166.475-49.165c-15.238-5.463-21.277-3.738-21.277-3.738s-9.488 25.589-45.715 27.315c.287.287 32.777 19.263 66.992-23.577zm10.351 50.891c-1.437 31.628-25.877 43.416-44.853 41.116-10.351-1.438-25.59 3.45-25.59 3.45l-19.264 33.352-6.325 2.301 10.925-20.127s-25.877 9.488-27.889 10.351c-2.013.863-10.064 12.651-16.676 25.014-1.438-8.625-6.901-14.663-6.901-14.951 0 1.438 2.876 27.315-.287 34.503-3.163 7.476-17.252 12.364-17.252 12.364l20.702 7.763 1.437.575 15.527-14.664 5.75-21.852 7.188-5.175s17.826-2.013 15.239 14.088c-1.15 7.763-9.776 7.188-19.552 13.226-5.75 3.45-13.225 8.914-16.963 12.651l10.35 7.476s12.364-2.012 29.902-15.814c17.827-14.376 8.914-29.902 8.914-29.902l29.039-34.79 18.977 1.438s32.777 8.338 43.416 39.39c21.276-59.517-12.939-98.907-15.814-101.783z" fill="#94A6C4"/><path d="M364.833 174.359c5.175 2.3 9.2 5.74 12.938 8.903-25.877-89.707-109.833-79.643-111.558-79.068 2.012-3.163 9.488-8.051 16.389-10.639 0 0-35.653-12.65-68.143 9.776.575-5.175 6.901-12.939 6.901-12.939-44.854 19.275-47.729 42.276-39.104 56.067-7.187-3.45-14.376-6.613-21.564-10.063-22.139-10.638-41.115-19.551-42.265-19.839-2.013-.575-2.876.288-2.876.288s-.862.862.863 2.587c26.164 26.165 42.841 41.989 70.73 67.568-4.6 10.35-5.175 15.526-2.875 20.989 3.163 7.475 2.875 11.213 1.725 16.101-1.437 4.888-12.938 48.304-14.951 53.192-2.013 5.175-17.251 22.426-17.538 28.177-.288 5.75 4.312 31.052 10.637 34.79 4.888 2.587 16.677 8.05 25.302 9.201 2.876.575 5.751.287 7.189-.863 5.75-3.738 7.188-4.313 10.925-4.025l.863.287c1.438.288 3.162.863 5.463 1.15 4.888.575 11.213.575 16.389-2.875 7.475-5.75 20.126-12.939 24.439-16.676 5.175-5.176 8.625-12.364 8.625-20.414 0-7.188 4.888-12.939 10.352-18.689 5.175-5.176 18.113-17.827 23.288-23.289 13.226 4.6 18.114 23.576 18.114 33.927 0 28.752-23.289 70.73-76.768 73.893-2.012 0-4.025.288-6.325.288-69.58 0-126.51-61.53-126.51-133.698 0-56.929 34.206-95.48 34.494-95.767C112.379 168.863 96 205.401 96 246.229 96 325.585 160.405 390 239.761 390s143.76-64.415 143.76-143.771c0-25.877-6.612-50.881-18.688-71.87zm-196.378-18.411l-12.076-10.351c5.464 2.875 10.926 5.75 15.814 8.338 14.951 7.763 27.315 14.663 29.615 16.389l.575.575c1.438 1.725 2.875 4.6.287 8.338-1.437 2.012-3.162 1.437-5.75-.288-2.3-1.437-14.664-11.213-28.465-23.001zm83.67 149.511c0 4.888-2.301 9.201-5.176 12.363-1.438 1.438-7.188 5.176-11.213 7.763-4.026 2.876-8.339 5.463-11.789 8.051-1.437.862-3.738 1.437-7.476.862l-8.913-1.15c5.463-5.462 20.414-17.251 25.302-19.551 5.751-2.875 9.201-6.038 6.614-12.651-2.301-6.9-11.214-6.613-11.214-6.613s5.463-1.438 9.776-.862c-5.463-2.301-12.939-1.726-16.676.862-4.026 2.875-5.176 14.663-7.763 21.852-2.588 7.475-8.339 10.638-16.964 16.676-4.888 3.163-8.051 4.025-10.351 3.738-4.888-1.438-10.638-4.026-14.664-6.039-2.3-4.312-5.175-17.826-5.462-23.289 1.149-2.875 5.75-8.625 8.05-12.076 4.6-6.325 7.188-10.063 8.338-13.513 2.013-4.888 10.351-35.653 13.514-48.591 3.162 5.463 7.475 14.663 5.463 19.839 10.35-10.926 5.75-23.864 3.45-29.04-2.013-5.176-4.313-15.238.287-25.014 4.313-9.776 19.264-36.228 19.264-36.228s2.588 6.901 8.051 6.326c5.175-.576 54.916-56.355 54.916-56.355s7.764 25.877-6.613 41.691c-14.376 15.814-26.452 17.538-26.452 17.538s16.102 5.176 32.778-3.45c4.313 15.526 8.051 31.628 8.051 33.64-1.151 2.013-17.252 29.04-18.69 30.765-.575.576-5.175 1.151-8.05 1.151-5.176.862-8.338 1.149-9.776 2.012-2.3 1.438-15.526 26.452-21.852 38.528-5.75.862-11.5 2.875-16.101 8.338 2.301-1.15 8.914-1.15 13.802-1.15 4.312.287 16.1 8.913 17.539 22.426v1.151zm-33.641 12.075c3.163-3.45 3.738-10.063 4.313-12.075.575-2.013 1.725-5.751 4.313-6.038 2.588-.288 8.051 1.437 7.476 5.75-.576 4.025-4.888 4.313-8.338 6.326-2.301 1.437-7.189 5.462-7.764 6.037zm125.072 3.738c-3.45-36.802-28.752-54.054-39.965-59.804 12.938-1.438 46.291-11.501 27.889-62.392.575 2.3 5.751 27.602-8.913 40.828-14.951 13.513-36.803 7.763-39.39 7.763-2.301-.288-13.226 10.35-28.178 30.765-1.437-.863-7.475-3.163-14.951-2.876 7.476-14.088 18.689-34.215 20.415-35.94.575-.575 5.462-1.15 8.338-1.437 5.75-.575 8.625-1.15 9.775-2.301.575-.862 4.601-7.188 8.626-14.088 2.588.287 9.488.862 10.35.575.576-.575 8.339-14.376 8.626-16.102.288-1.149-5.175-22.713-8.626-36.514 71.019 33.64 82.232 107.82 46.004 151.523z" fill="#1C324F"/><path d="M275.126 150.197c8.051-7.188 6.901-19.551 6.901-19.551l-24.152 26.739c-.288 0 7.188 1.437 17.251-7.188zm-90.281 152.099l4.025-11.501s-12.363 15.814-13.514 18.114c-1.15 2.588-.575 7.476 3.451 7.763 4.025.288 9.488-4.888 10.063-8.913.863-5.463-4.025-5.463-4.025-5.463zm37.953-69.58c8.625-.862 24.151-7.763 30.765-13.226 6.612-5.751 5.462-18.402-4.888-22.139 3.45-5.751 9.2-17.827 9.2-17.827s-37.09 43.416-39.966 43.992c-2.874.575-4.025-10.352-4.025-10.352-8.625 20.99 6.039 26.165 8.914 19.552z" fill="#1C324F"/><path d="M225.96 227.253l19.264-24.44s8.338 5.751 2.875 12.364c-6.9 7.763-22.139 12.076-22.139 12.076z" fill="#FFD925"/><path d="M277.139 118.282l-13.227 14.376c-10.638 3.163-20.988 8.913-30.765 18.402 0-5.463 15.814-29.328 43.992-32.778zm16.675 12.363c.288-3.738 0-8.05-.575-12.076 17.252 2.3 37.666 12.364 60.955 35.078-19.264-10.638-39.678-20.414-60.38-23.002zm5.176 18.689s64.117 28.178 75.906 107.246c1.725-102.933-71.306-108.108-75.906-107.246zm-93.444-45.429c-.863 2.3-37.091 41.116 8.051 56.355-24.728-22.14-8.339-56.067-8.051-56.355zm19.263 50.316s3.738-43.99 30.19-55.779c-2.012.575-55.779 16.964-30.19 55.779z" fill="#D82423"/><defs><linearGradient id="paint0_linear" x1="240" y1="0" x2="240" y2="701.818" gradientUnits="userSpaceOnUse"><stop stop-color="#08021E"/><stop offset="1" stop-color="#1F0777"/></linearGradient></defs></svg>

<svg width="480" height="480" viewBox="0 0 480 480" fill="none" xmlns="http://www.w3.org/2000/svg">
<mask id="mask0" mask-type="alpha" maskUnits="userSpaceOnUse" x="0" y="0" width="480" height="480">
<circle cx="240" cy="240" r="240" fill="url(#paint0_linear)"/>
</mask>
<g mask="url(#mask0)">
<circle cx="240" cy="240" r="240" fill="#31D8A4"/>
<circle cx="240" cy="240" r="208" fill="white"/>
</g>
<circle cx="240" cy="240" r="184" fill="#0E052F"/>
<path d="M239.761 389.991C319.158 389.991 383.521 325.626 383.521 246.23C383.521 166.833 319.158 102.469 239.761 102.469C160.364 102.469 96 166.833 96 246.23C96 325.626 160.364 389.991 239.761 389.991Z" fill="#ECF3FF"/>
<path d="M200.945 158.545L150.629 138.418V145.606L193.757 184.422L190.882 224.675L177.943 279.304L160.692 303.743L165.005 338.246L186.569 341.121L203.82 338.246L221.071 341.121L251.261 322.432L257.012 292.243L292.952 257.74L308.766 269.24L324.579 292.243V338.246L346.144 332.495L367.708 285.054L373.458 224.675L295.828 111.104L282.889 108.229L200.945 158.545Z" fill="white"/>
<path d="M124.752 241.629C125.327 236.742 125.615 231.854 127.053 227.254C131.078 208.277 138.841 190.163 150.342 175.5C152.355 172.912 154.08 170.612 156.38 168.311L143.441 156.235C141.141 159.686 138.841 163.136 136.828 166.587C126.19 184.988 120.44 205.689 119.002 226.103C118.427 231.279 118.714 236.454 118.714 241.342C118.714 246.517 119.289 251.405 120.152 256.581C121.59 266.644 124.177 276.419 127.628 285.62C125.327 275.844 124.177 266.069 123.89 256.006C123.89 251.405 123.89 246.517 124.752 241.629Z" fill="#94A6C4"/>
<path d="M183.695 148.482C176.507 145.031 166.444 140.431 159.256 136.981C165.869 130.655 177.944 124.042 188.008 119.729C180.82 125.48 180.82 137.556 183.695 148.482Z" fill="#94A6C4"/>
<path d="M154.654 197.35C150.629 207.414 148.042 218.052 147.179 228.403C146.891 230.99 146.604 233.579 146.891 236.166C146.891 238.754 146.891 241.341 147.179 243.929L147.467 247.954C147.467 249.104 147.754 250.542 148.042 251.692L149.192 259.455L149.479 251.692C149.479 250.542 149.479 249.104 149.767 247.954L150.342 244.216C150.629 241.629 151.204 239.041 151.492 236.741C151.779 234.153 152.642 231.853 153.217 229.553C155.805 219.777 160.117 210.864 165.293 202.526C168.743 197.063 172.768 192.175 177.081 187.575L165.868 176.937C160.98 183.549 157.53 190.163 154.654 197.35Z" fill="#94A6C4"/>
<path d="M321.129 148.185C305.891 142.722 299.852 144.447 299.852 144.447C299.852 144.447 290.364 170.036 254.137 171.762C254.424 172.049 286.914 191.025 321.129 148.185Z" fill="#94A6C4"/>
<path d="M331.48 199.076C330.043 230.704 305.603 242.492 286.627 240.192C276.276 238.754 261.037 243.642 261.037 243.642L241.773 276.994L235.448 279.295L246.373 259.168C246.373 259.168 220.496 268.656 218.484 269.519C216.471 270.382 208.42 282.17 201.808 294.533C200.37 285.908 194.907 279.87 194.907 279.582C194.907 281.02 197.783 306.897 194.62 314.085C191.457 321.561 177.368 326.449 177.368 326.449L198.07 334.212L199.507 334.787L215.034 320.123L220.784 298.271L227.972 293.096C227.972 293.096 245.798 291.083 243.211 307.184C242.061 314.947 233.435 314.372 223.659 320.41C217.909 323.86 210.434 329.324 206.696 333.061L217.046 340.537C217.046 340.537 229.41 338.525 246.948 324.723C264.775 310.347 255.862 294.821 255.862 294.821L284.901 260.031L303.878 261.469C303.878 261.469 336.655 269.807 347.294 300.859C368.57 241.342 334.355 201.952 331.48 199.076Z" fill="#94A6C4"/>
<path d="M364.833 174.359C370.008 176.659 374.033 180.099 377.771 183.262C351.894 93.5553 267.938 103.619 266.213 104.194C268.225 101.031 275.701 96.143 282.602 93.5553C282.602 93.5553 246.949 80.9043 214.459 103.331C215.034 98.1556 221.36 90.3925 221.36 90.3925C176.506 109.667 173.631 132.668 182.256 146.459C175.069 143.009 167.88 139.846 160.692 136.396C138.553 125.758 119.577 116.845 118.427 116.557C116.414 115.982 115.551 116.845 115.551 116.845C115.551 116.845 114.689 117.707 116.414 119.432C142.578 145.597 159.255 161.421 187.144 187C182.544 197.35 181.969 202.526 184.269 207.989C187.432 215.464 187.144 219.202 185.994 224.09C184.557 228.978 173.056 272.394 171.043 277.282C169.03 282.457 153.792 299.708 153.505 305.459C153.217 311.209 157.817 336.511 164.142 340.249C169.03 342.836 180.819 348.299 189.444 349.45C192.32 350.025 195.195 349.737 196.633 348.587C202.383 344.849 203.821 344.274 207.558 344.562L208.421 344.849C209.859 345.137 211.583 345.712 213.884 345.999C218.772 346.574 225.097 346.574 230.273 343.124C237.748 337.374 250.399 330.185 254.712 326.448C259.887 321.272 263.337 314.084 263.337 306.034C263.337 298.846 268.225 293.095 273.689 287.345C278.864 282.169 291.802 269.518 296.977 264.056C310.203 268.656 315.091 287.632 315.091 297.983C315.091 326.735 291.802 368.713 238.323 371.876C236.311 371.876 234.298 372.164 231.998 372.164C162.418 372.164 105.488 310.634 105.488 238.466C105.488 181.537 139.694 142.986 139.982 142.699C112.379 168.863 96 205.401 96 246.229C96 325.585 160.405 390 239.761 390C319.117 390 383.521 325.585 383.521 246.229C383.521 220.352 376.909 195.348 364.833 174.359ZM168.455 155.948C164.43 152.497 160.405 149.047 156.379 145.597C161.843 148.472 167.305 151.347 172.193 153.935C187.144 161.698 199.508 168.598 201.808 170.324C201.808 170.324 202.095 170.611 202.383 170.899C203.821 172.624 205.258 175.499 202.67 179.237C201.233 181.249 199.508 180.674 196.92 178.949C194.62 177.512 182.256 167.736 168.455 155.948ZM252.125 305.459C252.125 310.347 249.824 314.66 246.949 317.822C245.511 319.26 239.761 322.998 235.736 325.585C231.71 328.461 227.397 331.048 223.947 333.636C222.51 334.498 220.209 335.073 216.471 334.498L207.558 333.348C213.021 327.886 227.972 316.097 232.86 313.797C238.611 310.922 242.061 307.759 239.474 301.146C237.173 294.246 228.26 294.533 228.26 294.533C228.26 294.533 233.723 293.095 238.036 293.671C232.573 291.37 225.097 291.945 221.36 294.533C217.334 297.408 216.184 309.196 213.597 316.385C211.009 323.86 205.258 327.023 196.633 333.061C191.745 336.224 188.582 337.086 186.282 336.799C181.394 335.361 175.644 332.773 171.618 330.76C169.318 326.448 166.443 312.934 166.156 307.471C167.305 304.596 171.906 298.846 174.206 295.395C178.806 289.07 181.394 285.332 182.544 281.882C184.557 276.994 192.895 246.229 196.058 233.291C199.22 238.754 203.533 247.954 201.521 253.13C211.871 242.204 207.271 229.266 204.971 224.09C202.958 218.914 200.658 208.852 205.258 199.076C209.571 189.3 224.522 162.848 224.522 162.848C224.522 162.848 227.11 169.749 232.573 169.174C237.748 168.598 287.489 112.819 287.489 112.819C287.489 112.819 295.253 138.696 280.876 154.51C266.5 170.324 254.424 172.048 254.424 172.048C254.424 172.048 270.526 177.224 287.202 168.598C291.515 184.124 295.253 200.226 295.253 202.238C294.102 204.251 278.001 231.278 276.563 233.003C275.988 233.579 271.388 234.154 268.513 234.154C263.337 235.016 260.175 235.303 258.737 236.166C256.437 237.604 243.211 262.618 236.885 274.694C231.135 275.556 225.385 277.569 220.784 283.032C223.085 281.882 229.698 281.882 234.586 281.882C238.898 282.169 250.686 290.795 252.125 304.308C252.125 305.171 252.125 305.171 252.125 305.459ZM218.484 317.534C221.647 314.084 222.222 307.471 222.797 305.459C223.372 303.446 224.522 299.708 227.11 299.421C229.698 299.133 235.161 300.858 234.586 305.171C234.01 309.196 229.698 309.484 226.248 311.497C223.947 312.934 219.059 316.959 218.484 317.534ZM343.556 321.272C340.106 284.47 314.804 267.218 303.591 261.468C316.529 260.03 349.882 249.967 331.48 199.076C332.055 201.376 337.231 226.678 322.567 239.904C307.616 253.417 285.764 247.667 283.177 247.667C280.876 247.379 269.951 258.017 254.999 278.432C253.562 277.569 247.524 275.269 240.048 275.556C247.524 261.468 258.737 241.341 260.463 239.616C261.038 239.041 265.925 238.466 268.801 238.179C274.551 237.604 277.426 237.029 278.576 235.878C279.151 235.016 283.177 228.69 287.202 221.79C289.79 222.077 296.69 222.652 297.552 222.365C298.128 221.79 305.891 207.989 306.178 206.263C306.466 205.114 301.003 183.55 297.552 169.749C368.571 203.389 379.784 277.569 343.556 321.272Z" fill="#1C324F"/>
<path d="M275.126 150.197C283.177 143.009 282.027 130.646 282.027 130.646L257.875 157.385C257.587 157.385 265.063 158.822 275.126 150.197Z" fill="#1C324F"/>
<path d="M184.845 302.296L188.87 290.795C188.87 290.795 176.507 306.609 175.356 308.909C174.206 311.497 174.781 316.385 178.807 316.672C182.832 316.96 188.295 311.784 188.87 307.759C189.733 302.296 184.845 302.296 184.845 302.296Z" fill="#1C324F"/>
<path d="M222.798 232.716C231.423 231.854 246.949 224.953 253.563 219.49C260.175 213.739 259.025 201.088 248.675 197.351C252.125 191.6 257.875 179.524 257.875 179.524C257.875 179.524 220.785 222.94 217.909 223.516C215.035 224.091 213.884 213.164 213.884 213.164C205.259 234.154 219.923 239.329 222.798 232.716Z" fill="#1C324F"/>
<path d="M225.96 227.253L245.224 202.813C245.224 202.813 253.562 208.564 248.099 215.177C241.199 222.94 225.96 227.253 225.96 227.253Z" fill="#FFD925"/>
<path d="M277.139 118.282L263.912 132.658C253.274 135.821 242.924 141.571 233.147 151.06C233.147 145.597 248.961 121.732 277.139 118.282Z" fill="#D82423"/>
<path d="M293.814 130.645C294.102 126.907 293.814 122.595 293.239 118.569C310.491 120.869 330.905 130.933 354.194 153.647C334.93 143.009 314.516 133.233 293.814 130.645Z" fill="#D82423"/>
<path d="M298.99 149.334C298.99 149.334 363.107 177.512 374.896 256.58C376.621 153.647 303.59 148.472 298.99 149.334Z" fill="#D82423"/>
<path d="M205.546 103.905C204.683 106.205 168.455 145.021 213.597 160.26C188.869 138.12 205.258 104.193 205.546 103.905Z" fill="#D82423"/>
<path d="M224.809 154.221C224.809 154.221 228.547 110.231 254.999 98.4424C252.987 99.0174 199.22 115.406 224.809 154.221Z" fill="#D82423"/>
<defs>
<linearGradient id="paint0_linear" x1="240" y1="0" x2="240" y2="701.818" gradientUnits="userSpaceOnUse">
<stop stop-color="#08021E"/>
<stop offset="1" stop-color="#1F0777"/>
</linearGradient>
</defs>
</svg>
